icons/square/48/google-authenticator.svg

<svg version="1.1" viewBox="0 0 48 48" xmlns="http://www.w3.org/2000/svg">
 <defs>
  <linearGradient id="bg" x2="0" y1="1" y2="47" gradientUnits="userSpaceOnUse">
   <stop stop-color="#cc5233" offset="0"/>
   <stop stop-color="#bc4c2f" offset="1"/>
  </linearGradient>
 </defs>
 <path d="m1 43v0.25c0 2.216 1.784 4 4 4h38c2.216 0 4-1.784 4-4v-0.25c0 2.216-1.784 4-4 4h-38c-2.216 0-4-1.784-4-4zm0 0.5v0.5c0 2.216 1.784 4 4 4h38c2.216 0 4-1.784 4-4v-0.5c0 2.216-1.784 4-4 4h-38c-2.216 0-4-1.784-4-4z" opacity=".02"/>
 <path d="m1 43.25v0.25c0 2.216 1.784 4 4 4h38c2.216 0 4-1.784 4-4v-0.25c0 2.216-1.784 4-4 4h-38c-2.216 0-4-1.784-4-4z" opacity=".05"/>
 <path d="m1 43v0.25c0 2.216 1.784 4 4 4h38c2.216 0 4-1.784 4-4v-0.25c0 2.216-1.784 4-4 4h-38c-2.216 0-4-1.784-4-4z" opacity=".1"/>
 <rect x="1" y="1" width="46" height="46" rx="4" fill="url(#bg)"/>
 <circle transform="translate(0 1)" cx="24" cy="24" r="15" opacity=".1"/>
 <rect x="14" y="18" width="20" height="12" fill="#444"/>
 <path transform="translate(0 1)" d="m14 18h20v12h-20zm14 6a4 4 0 1 0-4 4h8.0623a9 9 0 0 0 0.93774-4z" opacity=".1"/>
 <path d="m38.457 20a15 15 0 0 1 0 8l-4.4568 6h-20v-20h20zm-10.457 4a4 4 0 1 0-4 4h8.0623a9 9 0 0 0 0.93774-4z" fill="#666"/>
 <path transform="translate(0 1)" d="m38.457 20a15 15 0 0 0-14.457-11l-10 5v10h1a9 9 0 0 1 17.062-4z" opacity=".1"/>
 <path d="m38.457 20a15 15 0 1 0 0 8h-6.3946a9 9 0 1 1 0-8z" fill="#999"/>
 <path transform="translate(0 1)" d="m24 23a1 1 0 0 0 0 2h12a1 1 0 0 0 0-2z" opacity=".1"/>
 <path d="m24 23a1 1 0 0 0 0 2h12a1 1 0 0 0 0-2z" fill="#999"/>
 <g fill="#ddd">
  <circle cx="32.485" cy="15.515" r="1"/>
  <circle cx="24" cy="12" r="1"/>
  <circle cx="15.515" cy="15.515" r="1"/>
  <circle cx="12" cy="24" r="1"/>
  <circle cx="15.515" cy="32.485" r="1"/>
  <circle cx="24" cy="36" r="1"/>
  <circle cx="32.485" cy="32.485" r="1"/>
 </g>
 <path d="m1 39v4c0 2.216 1.784 4 4 4h38c2.216 0 4-1.784 4-4v-4c0 2.216-1.784 4-4 4h-38c-2.216 0-4-1.784-4-4z" opacity=".1"/>
</svg>

<svg xmlns="http://www.w3.org/2000/svg" version="1.1" viewBox="0 0 48 48">
	<defs>
		<linearGradient id="bg" gradientUnits="userSpaceOnUse" x1="0" x2="0" y1="1" y2="47">
			<stop offset="0" stop-color="#cc5233"/>
			<stop offset="1" stop-color="#bc4c2f"/>
		</linearGradient>
	</defs>
	<path opacity=".02" d="m1 43v0.25c0 2.216 1.784 4 4 4h38c2.216 0 4-1.784 4-4v-0.25c0 2.216-1.784 4-4 4h-38c-2.216 0-4-1.784-4-4zm0 0.5v0.5c0 2.216 1.784 4 4 4h38c2.216 0 4-1.784 4-4v-0.5c0 2.216-1.784 4-4 4h-38c-2.216 0-4-1.784-4-4z"/>
	<path opacity=".05" d="m1 43.25v0.25c0 2.216 1.784 4 4 4h38c2.216 0 4-1.784 4-4v-0.25c0 2.216-1.784 4-4 4h-38c-2.216 0-4-1.784-4-4z"/>
	<path opacity=".1" d="m1 43v0.25c0 2.216 1.784 4 4 4h38c2.216 0 4-1.784 4-4v-0.25c0 2.216-1.784 4-4 4h-38c-2.216 0-4-1.784-4-4z"/>
	<rect x="1" y="1" width="46" height="46" rx="4" fill="url(#bg)"/>
	<circle cx="24" cy="24" r="15" opacity=".1" transform="translate(0 1)"/>
	<rect x="14" y="18" width="20" height="12" fill="#444"/>
	<path d="M 14,18 h 20 v 12 h -20 z M 28,24 A 4,4,0,1,0,24,28 H 32.06225774829855 A 9,9,0,0,0,33,24 Z" opacity=".1" transform="translate(0 1)"/>
	<path d="M 38.45683229480096,20 a 15,15,0,0,1,0,8 L 34,34 h -20 v -20 h 20 z M 28,24 A 4,4,0,1,0,24,28 H 32.06225774829855 A 9,9,0,0,0,33,24 Z" fill="#666"/>
	<path d="M 38.45683229480096,20 A 15,15,0,0,0,24,9 L 14,14 V 24 H 15 A 9,9,0,0,1,32.06225774829855,20 Z" opacity=".1" transform="translate(0 1)"/>
	<path d="M 38.45683229480096,20 a 15,15,0,1,0,0,8 H 32.06225774829855 a 9,9,0,1,1,0,-8 Z" fill="#999"/>
	<path d="M 24,23 a 1,1,0,0,0,0,2 h 12 a 1,1,0,0,0,0,-2 Z" opacity=".1" transform="translate(0 1)"/>
	<path d="M 24,23 a 1,1,0,0,0,0,2 h 12 a 1,1,0,0,0,0,-2 Z" fill="#999"/>
	<g fill="#ddd">
		<circle cx="32.48528137423857" cy="15.51471862576143" r="1"/>
		<circle cx="24" cy="12" r="1"/>
		<circle cx="15.51471862576143" cy="15.51471862576143" r="1"/>
		<circle cx="12" cy="24" r="1"/>
		<circle cx="15.51471862576143" cy="32.48528137423857" r="1"/>
		<circle cx="24" cy="36" r="1"/>
		<circle cx="32.48528137423857" cy="32.48528137423857" r="1"/>
	</g>
	<path opacity=".1" d="m1 39v4c0 2.216 1.784 4 4 4h38c2.216 0 4-1.784 4-4v-4c0 2.216-1.784 4-4 4h-38c-2.216 0-4-1.784-4-4z"/>
</svg>
